!!!COM: Palestrina, Giovanni Perluigi da
!!!OPR: Missa Descendit angelus Domini
!!!OTL: Sanctus
**kern	**kern	**kern	**kern
*Ibass	*Itenor	*Icalto	*Icant
!Bassus	!Tenor	!Altus	!Cantus
*clefF4	*clefGv2	*clefG2	*clefG2
*k[b-]	*k[b-]	*k[b-]	*k[b-]
*F:ion	*F:ion	*F:ion	*F:ion
*M4/2	*M4/2	*M4/2	*M4/2
=1	=1	=1	=1
0r	0c	1r	0r
.	.	[1cc	.
=2	=2	=2	=2
0r	1A	1cc]	1r
.	1F	1a	[1cc
=3	=3	=3	=3
0F	1.c	1f	1cc]
.	.	[1a	1a
.	2c	.	.
=4	=4	=4	=4
1D	1d	2a]	1f
.	.	4g	.
.	.	4f	.
1C	1e	1g	[1cc
=5	=5	=5	=5
1.F	1c	0a	2cc]
.	.	.	2cc
.	2.f	.	2dd
2F	.	.	[2cc
.	4e	.	.
=6	=6	=6	=6
1G	1d	2.g	2cc]
.	.	.	2b-
.	.	4f	.
1A	[1c	4e	4cc
.	.	4d	4b-
.	.	2e	4a
.	.	.	4g
=7	=7	=7	=7
4F	1c]	1f	1a
4G	.	.	.
4A	.	.	.
4B-	.	.	.
2.c	2r	2e	1g
.	2c	2cc	.
8B-	.	.	.
8A	.	.	.
=8	=8	=8	=8
2G	2d	2b-	0r
2F	2f	2a	.
1c	2e	2g	.
.	4c	[2cc	.
.	4d	.	.
=9	=9	=9	=9
0r	4e	2cc]	1r
.	4f	.	.
.	2g	2b-	.
.	2f	2a	1cc
.	2e	[2cc	.
=10	=10	=10	=10
0r	1d	2cc]	2dd
.	.	2b-	2ff
.	2.c	[1cc	2ee
.	.	.	4cc
.	4B-	.	4dd
=11	=11	=11	=11
0r	2A	2cc]	4ee
.	.	.	4ff
.	2G	2b-	2.gg
.	1d	2a	.
.	.	.	4ff
.	.	2f	[2ff
=12	=12	=12	=12
1r	1c	1g	2ff]
.	.	.	2ee
2r	2r	1f	1ff
2F	2f	.	.
=13	=13	=13	=13
2G	2e	0r	2r
2B-	2d	.	2f
2A	2c	.	2.a
4F	[2f	.	.
4G	.	.	4b-
=14	=14	=14	=14
4A	2f]	2r	1cc
4B-	.	.	.
1c	2e	2c	.
.	1d	2d	2r
2B	.	2f	2dd
=15	=15	=15	=15
0c	1c	2e	2.ee
.	.	4c	.
.	.	4d	4ff
.	2r	4e	2gg
.	.	4f	.
.	2c	4g	2cc
.	.	4e	.
=16	=16	=16	=16
0r	2d	1f	2b-
.	2f	.	2a
.	2e	4c	2g
.	.	4d	.
.	4c	4e	[2cc
.	4d	4f	.
=17	=17	=17	=17
1c	4e	1g	4cc]
.	4f	.	4b-
.	1g	.	4g
.	.	.	4a
2B-	.	2r	2b-
2A	2f	2c	2cc
=18	=18	=18	=18
2G	2.g	2d	2b-
1c	.	4e	2.cc
.	4f	4d	.
.	2e	4e	.
.	.	4f	4a
2B-	2d	[2g	[2dd
=19	=19	=19	=19
1A	2e	2g]	4dd]
.	.	.	4cc
.	4d	2f	1cc
.	4c	.	.
1G	1d	2g	.
.	.	[2g	2b
=20	=20	=20	=20
1C	2c	2g]	1cc
.	1c	2e	.
1r	.	2g	2r
.	2A	2a	[2cc
=21	=21	=21	=21
2r	2c	2g	2cc]
1F	2d	4f	2a
.	.	4g	.
.	2c	4a	2cc
.	.	4g	.
2D	4F	4a	2dd
.	4G	4b-	.
=22	=22	=22	=22
4F	4A	1a	1cc
4G	4B-	.	.
4A	4c	.	.
4B-	4d	.	.
2c	4e	2g	1r
.	4c	.	.
2d	[2f	2f	.
=23	=23	=23	=23
1c	2f]	1g	2r
.	2e	.	1cc
2.F	1f	2a	.
.	.	[2f	2a
4G	.	.	.
=24	=24	=24	=24
2A	1r	2f]	2cc
2B-	.	2d	2dd
[1F	2r	4f	2cc
.	.	4g	.
.	[2c	4a	4f
.	.	4b-	4g
=25	=25	=25	=25
1F]	2c]	2.cc	4a
.	.	.	4b-
.	2A	.	4cc
.	.	8b-	4dd
.	.	8a	.
1r	2c	2g	4ee
.	.	.	4cc
.	2d	2f	[2ff
=26	=26	=26	=26
1r	1c	1g	2ff]
.	.	.	2ee
2r	4F	1a	1ff
.	4G	.	.
[2F	4A	.	.
.	4B-	.	.
=27	=27	=27	=27
2F]	4c	2r	2.f
.	4A	.	.
2D	2d	1f	.
.	.	.	4g
2F	2c	.	2a
2G	2B-	2d	2b-
=28	=28	=28	=28
2F	1.c	2f	2a
4C	.	1e	4g
4D	.	.	4f
4E	.	.	[1g
4F	.	.	.
4G	4B-	4d	.
4A	4A	4c	.
=29	=29	=29	=29
4B-	0G	2d	1g]
4G	.	.	.
1c	.	2e	.
.	.	1d	2.dd
2B	.	.	.
.	.	.	4dd
=30	=30	=30	=30
1c	1g	2r	4ee
.	.	.	4dd
.	.	4c	4ee
.	.	4d	4ff
2r	2c	4e	2gg
.	.	4f	.
2c	2e	4g	2cc
.	.	4a	.
=31	=31	=31	=31
2B-	2d	4b-	2dd
.	.	4g	.
2A	2c	1cc	2ff
1G	2.g	.	2ee
.	.	2b-	[2dd
.	4f	.	.
=32	=32	=32	=32
2A	2e	1a	4dd]
.	.	.	4cc
2F	2f	.	1cc
1G	1d	2.g	.
.	.	.	2b
.	.	4f	.
=33	=33	=33	=33
0C	0c	0e	0cc
=34	=34	=34	=34
1r	1c	0r	0r
1F	2c	.	.
.	2c	.	.
=35	=35	=35	=35
2F	1d	0r	0r
2F	.	.	.
1G	1e	.	.
=36	=36	=36	=36
1A	1c	0r	0r
2F	2.f	.	.
[2B-	.	.	.
.	4e	.	.
=37	=37	=37	=37
4B-]	4d	0r	1r
4A	4c	.	.
4F	2f	.	.
4G	.	.	.
2.A	4e	.	1cc
.	4d	.	.
.	4c	.	.
4G	4B-	.	.
=38	=38	=38	=38
2.F	4A	1f	2cc
.	4B-	.	.
.	2.c	.	2cc
4E	.	.	.
1D	.	2f	1dd
.	4B	.	.
.	4B	2f	.
.	4A	.	.
=39	=39	=39	=39
1C	1c	1g	1ee
1r	2F	1a	1cc
.	[2f	.	.
=40	=40	=40	=40
0r	4f]	2f	2.ff
.	4e	.	.
.	4d	2.b-	.
.	4c	.	4ee
.	4B-	.	4dd
.	4c	4a	4cc
.	4d	4f	2ff
.	4B-	4g	.
=41	=41	=41	=41
1r	2c	2.a	2ee
.	2d	.	2.dd
.	.	4f	.
2r	2e	2g	.
.	.	.	4cc
[2F	2f	[2a	[2cc
=42	=42	=42	=42
2F]	1d	2a]	2cc]
2G	.	4g	2b
.	.	4f	.
2.A	1c	2e	1cc
.	.	2f	.
4F	.	.	.
=43	=43	=43	=43
4G	0r	2e	0r
4A	.	.	.
2.B-	.	2.d	.
4A	.	4c	.
[2A	.	2c	.
=44	=44	=44	=44
2A]	1r	1B-	1r
2G	.	.	.
2A	2r	1A	2r
2F	2f	.	[2cc
=45	=45	=45	=45
2A	2e	1r	2cc]
2B-	2d	.	2dd
2c	4c	2r	2.ee
.	4d	.	.
2A	4e	2cc	.
.	4f	.	4cc
=46	=46	=46	=46
0r	1d	2b-	4dd
.	.	.	4ee
.	.	2.a	2.ff
.	1c	.	.
.	.	4g	4ee
.	.	2g	[2ee
=47	=47	=47	=47
1r	1d	1f	2ee]
.	.	.	2dd
2r	2c	2e	2ee
2F	2c	2f	2a
=48	=48	=48	=48
2D	1d	2f	2a
2G	.	2g	2b-
1F	1f	2.a	2.cc
.	.	4f	4a
=49	=49	=49	=49
1r	2r	4g	4b-
.	.	4a	4cc
.	2B-	1b-	1dd
2r	2B-	.	.
2F	2c	[2a	2cc
=50	=50	=50	=50
2D	2d	2a]	1b-
2G	2e	2g	.
2F	2f	2a	2a
2A	4c	2f	2cc
.	4c	.	.
=51	=51	=51	=51
2A	2c	2f	2a
2B-	2d	2g	2dd
2.c	2.e	2.a	1cc
4A	4c	4f	.
=52	=52	=52	=52
4B-	4d	4g	1r
4c	4e	4a	.
1d	1f	1b-	.
.	.	.	2r
2A	2c	[2a	2f
=53	=53	=53	=53
1B-	1d	2a]	2f
.	.	2g	2g
1A	2c	2f	2.a
.	2c	4e	.
.	.	4d	4f
=54	=54	=54	=54
2r	2c	4e	4g
.	.	4f	4a
2G	2d	1g	1b-
2G	2e	.	.
2A	[2f	2c	[2a
=55	=55	=55	=55
1B-	4f]	1d	2a]
.	4e	.	.
.	2d	.	2g
2.A	2.c	2e	1a
.	.	2e	.
4G	4B-	.	.
=56	=56	=56	=56
2F	2A	2f	2r
2E	2G	2.g	1cc
1F	1A	.	.
.	.	4f	.
.	.	[2f	2cc
=57	=57	=57	=57
0C	0G	2f]	0cc
.	.	4e	.
.	.	4d	.
.	.	1e	.
=58	=58	=58	=58
0F	0F	0f	0a
==	==	==	==
*-	*-	*-	*-
!!!CDT: 1525/^1526/-1594/2/2
!!!OCY: Italia
!!!AGN: Mass (Parody)
!!!AST: renaissance, vocal
!!!ASW: Motet 1532 (Penet)
!!!PWK: Masses, Book 11
!!!RNB: Cadence finals: C
!!!YOR: Le Opere Complete, v. 28, p. 1
!!!YOO: Rome, Italy: Fratelli Scalera
!!!END: 1992//
!!!EED: John Miller
!!!YEC: Copyright 2000, John Miller
!!!YEN: United States of America
!!!YEM: Rights to all derivative electronic formats reserved.
!!!YEM: Refer to licensing agreement for further details.
!!!YEM: This file must be accompanied by the licensing agreement.
!!!YEM: A copy of the licensing agreement may be found at http://www.music-cog.ohio-state.edu/HumdrumDatabases/Palestrina/license.txt
!!!EMD: converted to Humdrum by Bret Aarden
